docs/img/mobile-signal.svg

<svg width="18" height="12" viewBox="0 0 18 12" fill="none" xmlns="http://www.w3.org/2000/svg">
<path fill-rule="evenodd" clip-rule="evenodd" d="M16.6666 0.666626H15.6666C15.1143 0.666626 14.6666 1.11434 14.6666 1.66663V10.3333C14.6666 10.8856 15.1143 11.3333 15.6666 11.3333H16.6666C17.2189 11.3333 17.6666 10.8856 17.6666 10.3333V1.66663C17.6666 1.11434 17.2189 0.666626 16.6666 0.666626ZM11 2.99996H12C12.5522 2.99996 13 3.44767 13 3.99996V10.3333C13 10.8856 12.5522 11.3333 12 11.3333H11C10.4477 11.3333 9.99996 10.8856 9.99996 10.3333V3.99996C9.99996 3.44767 10.4477 2.99996 11 2.99996ZM7.33329 5.33329H6.33329C5.78101 5.33329 5.33329 5.78101 5.33329 6.33329V10.3333C5.33329 10.8856 5.78101 11.3333 6.33329 11.3333H7.33329C7.88558 11.3333 8.33329 10.8856 8.33329 10.3333V6.33329C8.33329 5.78101 7.88558 5.33329 7.33329 5.33329ZM2.66663 7.33329H1.66663C1.11434 7.33329 0.666626 7.78101 0.666626 8.33329V10.3333C0.666626 10.8856 1.11434 11.3333 1.66663 11.3333H2.66663C3.21891 11.3333 3.66663 10.8856 3.66663 10.3333V8.33329C3.66663 7.78101 3.21891 7.33329 2.66663 7.33329Z" fill="black"/>
</svg>

<svg width="18" height="12" fill="none" xmlns="http://www.w3.org/2000/svg"><path fill-rule="evenodd" clip-rule="evenodd" d="M16.667.667h-1a1 1 0 0 0-1 1v8.666a1 1 0 0 0 1 1h1a1 1 0 0 0 1-1V1.667a1 1 0 0 0-1-1ZM11 3h1a1 1 0 0 1 1 1v6.333a1 1 0 0 1-1 1h-1a1 1 0 0 1-1-1V4a1 1 0 0 1 1-1ZM7.333 5.333h-1a1 1 0 0 0-1 1v4a1 1 0 0 0 1 1h1a1 1 0 0 0 1-1v-4a1 1 0 0 0-1-1Zm-4.666 2h-1a1 1 0 0 0-1 1v2a1 1 0 0 0 1 1h1a1 1 0 0 0 1-1v-2a1 1 0 0 0-1-1Z" fill="#000"/></svg>
